src/assets/social/SocialMirror.svg

<svg viewBox="0 0 144 185" xmlns="http://www.w3.org/2000/svg" class="_1sjywpl0 _1sjywpl1 bc5nciic bc5nci19f bc5nci4jw"><path d="M0 71.6129C0 32.0622 32.0622 0 71.6129 0C111.164 0 143.226 32.0622 143.226 71.6129V174.118C143.226 180.128 138.354 185 132.343 185H10.8824C4.87222 185 0 180.128 0 174.118V71.6129Z" fill="url(#mirrorbackground)"></path><path clip-rule="evenodd" d="M134.717 176.111V71.8216C134.717 36.8684 106.465 8.53326 71.6129 8.53326C36.7613 8.53326 8.50846 36.8684 8.50846 71.8216V176.111C8.50846 176.308 8.66719 176.467 8.86298 176.467H134.363C134.559 176.467 134.717 176.308 134.717 176.111ZM71.6129 0C32.0622 0 0 32.1556 0 71.8216V176.111C0 181.02 3.96809 185 8.86298 185H134.363C139.258 185 143.226 181.02 143.226 176.111V71.8216C143.226 32.1556 111.164 0 71.6129 0Z" fill="#9B9BA6" fill-rule="evenodd"></path><defs><linearGradient gradientUnits="userSpaceOnUse" id="mirrorbackground" x1="18.435" x2="143.747" y1="10.6666" y2="209.447"><stop offset="0.265625" stop-color="#FFFFFF"></stop><stop offset="0.734375" stop-color="#9B9BA6"></stop></linearGradient></defs></svg>

<svg xmlns="http://www.w3.org/2000/svg" class="_1sjywpl0 _1sjywpl1 bc5nciic bc5nci19f bc5nci4jw" viewBox="0 0 144 185"><path fill="url(#a)" d="M0 71.613C0 32.063 32.062 0 71.613 0s71.613 32.062 71.613 71.613v102.505c0 6.01-4.872 10.882-10.883 10.882H10.883C4.872 185 0 180.128 0 174.118z"/><path fill="#9B9BA6" fill-rule="evenodd" d="M134.717 176.111V71.821c0-34.953-28.252-63.288-63.104-63.288-34.852 0-63.105 28.335-63.105 63.289V176.11c0 .197.16.356.355.356h125.5a.354.354 0 0 0 .354-.356M71.613 0C32.063 0 0 32.156 0 71.822V176.11C0 181.02 3.968 185 8.863 185h125.5c4.895 0 8.863-3.98 8.863-8.889V71.821C143.226 32.157 111.164 0 71.613 0" clip-rule="evenodd"/><defs><linearGradient id="a" x1="18.435" x2="143.747" y1="10.667" y2="209.447" gradientUnits="userSpaceOnUse"><stop offset=".266" stop-color="#FFF"/><stop offset=".734" stop-color="#9B9BA6"/></linearGradient></defs></svg>
